krita/pics/svg/dark_mirror-view-around-cursor-16.svg

<!--Created with Inkscape (http://www.inkscape.org/)--><svg xmlns:dc="http://purl.org/dc/elements/1.1/" xmlns:cc="http://creativecommons.org/ns#" xmlns:rdf="http://www.w3.org/1999/02/22-rdf-syntax-ns#" xmlns="http://www.w3.org/2000/svg" xmlns:sodipodi="http://sodipodi.sourceforge.net/DTD/sodipodi-0.dtd" xmlns:inkscape="http://www.inkscape.org/namespaces/inkscape" viewBox="0 0 16 16" version="1.1" id="svg2" height="16" width="16" sodipodi:docname="dark_mirror-view-around-cursor16.svg" inkscape:version="1.0.1 (3bc2e813f5, 2020-09-07)"><sodipodi:namedview pagecolor="#ffffff" bordercolor="#666666" borderopacity="1" objecttolerance="10" gridtolerance="10" guidetolerance="10" inkscape:pageopacity="0" inkscape:pageshadow="2" inkscape:window-width="1333" inkscape:window-height="1040" id="namedview9" showgrid="false" inkscape:zoom="37.565048" inkscape:cx="7.0556822" inkscape:cy="7.7813931" inkscape:window-x="430" inkscape:window-y="460" inkscape:window-maximized="0" inkscape:current-layer="svg2" inkscape:document-rotation="0"/><metadata id="metadata7"><rdf:RDF><cc:Work><dc:format>image/svg+xml</dc:format><dc:type rdf:resource="http://purl.org/dc/dcmitype/StillImage"/><dc:title/><dc:date>2021</dc:date><dc:creator><cc:Agent><dc:title>Alan North</dc:title></cc:Agent></dc:creator><cc:license rdf:resource="http://creativecommons.org/licenses/by-sa/4.0/"/></cc:Work><cc:License rdf:about="http://creativecommons.org/licenses/by-sa/4.0/"><cc:permits rdf:resource="http://creativecommons.org/ns#Reproduction"/><cc:permits rdf:resource="http://creativecommons.org/ns#Distribution"/><cc:requires rdf:resource="http://creativecommons.org/ns#Notice"/><cc:requires rdf:resource="http://creativecommons.org/ns#Attribution"/><cc:permits rdf:resource="http://creativecommons.org/ns#DerivativeWorks"/><cc:requires rdf:resource="http://creativecommons.org/ns#ShareAlike"/></cc:License></rdf:RDF></metadata><path id="rect830" style="color:#000;clip-rule:nonzero;display:inline;overflow:visible;visibility:visible;isolation:auto;mix-blend-mode:normal;color-interpolation:sRGB;color-interpolation-filters:linearRGB;solid-color:#000;solid-opacity:1;fill:#373737;fill-opacity:1;fill-rule:evenodd;stroke:none;stroke-width:.88889;stroke-linecap:square;stroke-linejoin:miter;stroke-miterlimit:4;stroke-dasharray:none;stroke-dashoffset:0;stroke-opacity:1;marker:none;color-rendering:auto;image-rendering:auto;shape-rendering:auto;text-rendering:auto;enable-background:accumulate" d="M7 0v6.174A3 3 0 0 1 8 6a3 3 0 0 1 1 .172V0H7zm2 11.826A3 3 0 0 1 8 12a3 3 0 0 1-1-.172V16h2v-4.174z"/><path id="path832" d="M6 2v3H2v8h4v1H1V2z" style="fill:#373737;fill-opacity:1;fill-rule:evenodd;stroke:none;stroke-width:.88889px;stroke-linecap:butt;stroke-linejoin:miter;stroke-opacity:1"/><path id="path832-3" d="M10 2v3h4v8h-4v1h5V2z" style="fill:#373737;fill-opacity:1;fill-rule:evenodd;stroke:none;stroke-width:.88889px;stroke-linecap:butt;stroke-linejoin:miter;stroke-opacity:1"/><ellipse style="fill:#373737;fill-opacity:1;stroke-width:1;stop-color:#000" id="path846" cx="8" cy="8.9999828" rx="2" ry="1.999983"/></svg>

<?xml version="1.0" encoding="UTF-8" standalone="no"?>
<!-- Created with Inkscape (http://www.inkscape.org/) -->

<svg
   xmlns:dc="http://purl.org/dc/elements/1.1/"
   xmlns:cc="http://creativecommons.org/ns#"
   xmlns:rdf="http://www.w3.org/1999/02/22-rdf-syntax-ns#"
   xmlns:svg="http://www.w3.org/2000/svg"
   xmlns="http://www.w3.org/2000/svg"
   xmlns:sodipodi="http://sodipodi.sourceforge.net/DTD/sodipodi-0.dtd"
   xmlns:inkscape="http://www.inkscape.org/namespaces/inkscape"
   viewBox="0 0 16 16"
   version="1.1"
   id="svg2"
   height="16"
   width="16"
   sodipodi:docname="dark_mirror-view-around-cursor16.svg"
   inkscape:version="1.0.1 (3bc2e813f5, 2020-09-07)">
  <sodipodi:namedview
     pagecolor="#ffffff"
     bordercolor="#666666"
     borderopacity="1"
     objecttolerance="10"
     gridtolerance="10"
     guidetolerance="10"
     inkscape:pageopacity="0"
     inkscape:pageshadow="2"
     inkscape:window-width="1333"
     inkscape:window-height="1040"
     id="namedview9"
     showgrid="false"
     inkscape:zoom="37.565048"
     inkscape:cx="7.0556822"
     inkscape:cy="7.7813931"
     inkscape:window-x="430"
     inkscape:window-y="460"
     inkscape:window-maximized="0"
     inkscape:current-layer="svg2"
     inkscape:document-rotation="0" />
  <defs
     id="defs4" />
  <metadata
     id="metadata7">
    <rdf:RDF>
      <cc:Work
         rdf:about="">
        <dc:format>image/svg+xml</dc:format>
        <dc:type
           rdf:resource="http://purl.org/dc/dcmitype/StillImage" />
        <dc:title></dc:title>
        <dc:date>2021</dc:date>
        <dc:creator>
          <cc:Agent>
            <dc:title>Alan North</dc:title>
          </cc:Agent>
        </dc:creator>
        <cc:license
           rdf:resource="http://creativecommons.org/licenses/by-sa/4.0/" />
      </cc:Work>
      <cc:License
         rdf:about="http://creativecommons.org/licenses/by-sa/4.0/">
        <cc:permits
           rdf:resource="http://creativecommons.org/ns#Reproduction" />
        <cc:permits
           rdf:resource="http://creativecommons.org/ns#Distribution" />
        <cc:requires
           rdf:resource="http://creativecommons.org/ns#Notice" />
        <cc:requires
           rdf:resource="http://creativecommons.org/ns#Attribution" />
        <cc:permits
           rdf:resource="http://creativecommons.org/ns#DerivativeWorks" />
        <cc:requires
           rdf:resource="http://creativecommons.org/ns#ShareAlike" />
      </cc:License>
    </rdf:RDF>
  </metadata>
  <path
     id="rect830"
     style="color:#000000;clip-rule:nonzero;display:inline;overflow:visible;visibility:visible;isolation:auto;mix-blend-mode:normal;color-interpolation:sRGB;color-interpolation-filters:linearRGB;solid-color:#000000;solid-opacity:1;fill:#373737;fill-opacity:1;fill-rule:evenodd;stroke:none;stroke-width:0.88889;stroke-linecap:square;stroke-linejoin:miter;stroke-miterlimit:4;stroke-dasharray:none;stroke-dashoffset:0;stroke-opacity:1;marker:none;color-rendering:auto;image-rendering:auto;shape-rendering:auto;text-rendering:auto;enable-background:accumulate"
     d="M 7 0 L 7 6.1738281 A 3 3 0 0 1 8 6 A 3 3 0 0 1 9 6.171875 L 9 0 L 7 0 z M 9 11.826172 A 3 3 0 0 1 8 12 A 3 3 0 0 1 7 11.828125 L 7 16 L 9 16 L 9 11.826172 z " />
  <path
     id="path832"
     d="m 6,2 v 3 h -4 v 8 h 4 v 1 h -5 v -12 z"
     style="fill:#373737;fill-opacity:1;fill-rule:evenodd;stroke:none;stroke-width:0.88889px;stroke-linecap:butt;stroke-linejoin:miter;stroke-opacity:1" />
  <path
     id="path832-3"
     d="m 10,2 v 3 h 4 v 8 h -4 v 1 h 5 v -12 z"
     style="fill:#373737;fill-opacity:1;fill-rule:evenodd;stroke:none;stroke-width:0.88889px;stroke-linecap:butt;stroke-linejoin:miter;stroke-opacity:1" />
  <ellipse
     style="fill:#373737;fill-opacity:1;stroke-width:1;stop-color:#000000"
     id="path846"
     cx="8"
     cy="8.9999828"
     rx="2"
     ry="1.999983" />
</svg>
